icons/svg/hourglass.svg

<svg width="24" height="24" viewBox="0 0 24 24" fill="none" xmlns="http://www.w3.org/2000/svg">
<path d="M4.09473 3.29775L19.9053 3.25" stroke="currentColor" stroke-width="1.5" stroke-linecap="round" stroke-linejoin="round"/>
<path d="M4.09473 20.75L19.9053 20.7023" stroke="currentColor" stroke-width="1.5" stroke-linecap="round" stroke-linejoin="round"/>
<path d="M18.4262 3.31055H5.57373L5.653 4.75869C5.75502 6.62229 6.55951 8.37799 7.90441 9.67208L9.14633 10.8671C9.79274 11.4891 9.79274 12.5237 9.14633 13.1457L7.90441 14.3407C6.55951 15.6348 5.75502 17.3905 5.653 19.2541L5.57373 20.7022H18.4262L18.3471 19.2574C18.245 17.3918 17.4389 15.6344 16.0915 14.34L14.8493 13.1465C14.2017 12.5244 14.2017 11.4884 14.8493 10.8662L16.0915 9.67276C17.4389 8.37834 18.245 6.62094 18.3471 4.75533L18.4262 3.31055Z" stroke="currentColor" stroke-width="1.5" stroke-linejoin="round"/>
</svg>

<svg xmlns="http://www.w3.org/2000/svg" width="24" height="24" fill="none" viewBox="0 0 24 24"><path stroke="currentColor" stroke-linecap="round" stroke-linejoin="round" stroke-width="1.5" d="m4.095 3.298 15.81-.048m-15.81 17.5 15.81-.048"/><path stroke="currentColor" stroke-linejoin="round" stroke-width="1.5" d="M18.426 3.31H5.574l.079 1.449a7.38 7.38 0 0 0 2.251 4.913l1.242 1.195a1.58 1.58 0 0 1 0 2.279L7.904 14.34a7.38 7.38 0 0 0-2.251 4.913l-.08 1.448h12.853l-.079-1.445a7.38 7.38 0 0 0-2.256-4.917l-1.242-1.194a1.58 1.58 0 0 1 0-2.28l1.242-1.193a7.38 7.38 0 0 0 2.256-4.918z"/></svg>
